X:84
T:Row Well Ye Mariners. (p)1651.PLFD1.084
M:6/4
L:1/4
Q:3/4=100
S:Playford, Dancing Master,1st Ed.,1651.
O:England;London
H:1651.
Z:Chris Partington.
K:G
G|F2 E F2 G|A3 A2 B|cdc BAB|A2 G G2:|
|:d|ded A2 B|cdB A2:||:"sic"G|GAG F2 E|1AFD G2:|2AFD G3|
|:d3A3|d3 A3|d2 e d2 c|1B A2 G3:|2BA2G2|]
